X: 26319
T: Men From Ulster, The
R: hornpipe
M: 4/4
K: Gmajor
G,>B,D>G B>GD>B,|C>EA>B c>BA>c|B>dg>d e>cA>G|(3FGA (3GFE (3DED (3CB,A,|
G,>B,D>G B>GD>B,|C>EA>B c>de>f|g>fg>e (3ded (3cBA|G>Bd>B g2:|
d>gf>g e>gf>g|b>ga>f g>ed>B|(3cde (3ABc (3Bcd G>B|(3AGF (3AGE D2 Bc|
d>gf>g e>gf>g|b>ga>f g>ed>B|c>de>f g>fg>e|d>Bc>A G2:|
G,B,DG BGDB,|CEAB cBAc|Bdgd ecAG|FAGE DFCA,|
G,B,DG BGDB,|CEAB cdef|gfge dcBA|G2 d2 g2:|
dgfg egfg|bgaf gedB|ceAc BdGB|AFGE D2 Bc|
dgfg egfg|bgaf gedB|cdef gfge|dBcA G2:|

